!!!!SEGMENT: 006-1-KI-004.krn
!!!COM: Chopin, Fryderyk
!!!OTL: Mazurka No. 4.
!!!OPS: Op. 6
!!!PTL: Quatre Mazurkas
!!!PPR: Kistner
!!!PPP: Leipzig
!!!AGN: Mazurka
!!!NIFC-rismID: 300605321
!!!NIFC-shelfmark: PL-Wbfc 2435/n
!!!OMD:PRESTO MA NON TROPPO.
!!!OMD: M.M. [half-dot] = 76.
**kern	**kern	**dynam
*part1	*part1	*part1
*staff2	*staff1	*
*>[A,B,B]	*>[A,B,B]	*
*clefF4	*clefG2	*
*k[b-e-a-d-g-c-]	*k[b-e-a-d-g-c-]	*
*e-:	*e-:	*
*M3/4	*M3/4	*
*MM228	*MM228	*
*>A	*>A	*
4r	(>[4b-	p
=1	=1	=1
*^	*^	*
*ped	*	*	*	*
4ryy	4EE-	8b-L]	4g-	.
.	.	8ee-J	.	.
*Xped	*	*	*	*
.	.	.	.	.
4B-^	[2E-	4dd-^	2gn	.
8c-L	.	8cc-L	.	.
8d-J	.	8b-J	.	.
*	*	*v	*v	*
=2	=2	=2	=2
8c-L	2.E-_	8a-L	.
8A-J	.	8cc-J	.
4dn	.	4f)	.
4B-	.	(4b-^<	.
=3	=3	=3	=3
*	*	*^	*
4e-	2.E-_	8b-L	4g-	.
.	.	8ee-J	.	.
4B-	.	4dd-^	2gn	.
8e-L	.	8cc-L	.	.
8d-J	.	8b-J	.	.
*	*	*v	*v	*
=4	=4	=4	=4
*	*^	*	*
8c-L	8ryy	2.E-\])	8a-\L	.
8A-J	4.A-	.	8fJ	.
4ryy	.	.	4dn\)	.
4G-/	4ryy	.	[<4e-^>	fz
*	*v	*v	*	*
!!LO:LB:g=original
=5	=5	=5	=5
*	*	*^	*
*	*	*	*^	*
4ryy	[2.E-	4ryy	(>8b-/L 8g-/	2e-\]	.
.	.	.	8ee-J	.	.
4B-	.	4dd-^	2gn	.	.
8c-L	.	8cc-/L	.	4ryy	.
8d-J	.	8b-J	.	.	.
*	*	*	*v	*v	*
=6	=6	=6	=6	=6
*	*^	*	*	*
8c-L	2ryy	2.E-\_	8a-	4ryy	.
8A-J	.	.	4.cc-)	.	.
2dn	.	.	.	2f	.
.	[>4B-)	.	[4b-^	.	.
=7	=7	=7	=7	=7	=7
*	*	*^	*	*	*
2e-	2.B-]	4E-\]	2ryy	(8b-L]	4g-	.
.	.	.	.	8ee-J	.	.
.	.	[2E-\	.	4dd-^	2gn	.
[4e-	.	.	8e-L	8cc-L	.	.
.	.	.	8d-J	8b-J)	.	.
*	*	*v	*v	*	*	*
=8	=8	=8	=8	=8	=8
4e-]	8c-L	2.E-\]	8a-	4ryy	.
.	8A-J	.	4.f	.	.
2ryy	2ryy	.	.	(>4dn</	.
.	.	.	[4e-^>)	4ryy	fz
*	*	*	*v	*v	*
*	*v	*v	*	*
=9!|:	=9!|:	=9!|:	=9!|:
*>B	*>B	*	*
*	*	*^	*
4ryy	2E-	4b-	2.g- 2.e-]	.
[2A-	.	(>12ccnL	.	.
.	.	12dd-	.	.
.	.	12ccJ)	.	.
.	4AA-	(8b-L	.	.
.	.	8ccJ	.	.
!!LO:LB:g=original
=10	=10	=10	=10	=10
4A-]	2D-	8ee-L	4f	.
.	.	8dd-J	.	.
4A-	.	4a-)	2f-X	.
[4G-	4GG-	4b-^<t	.	.
.	.	16qa-/LL	.	.
.	.	16qb-/JJ	.	.
=11	=11	=11	=11	=11
4G-]	2C-	8dd-L	2.e-	<
.	.	8cc-J	.	.
4G-	.	4g-	.	.
[4F	4FF	4a-T	.	[
.	.	16qg-/LL	.	.
.	.	16qa-/JJ	.	.
=12	=12	=12	=12	=12
4F]	2BB-	(<8cc-L	2dn	.
.	.	8b-J	.	.
4A-	.	4f)	.	.
4G-	[4E-	4e-^>	4ryy	fz
=13	=13	=13	=13	=13
4e-	(>2E-]	4b-	2.g-	.
[2A-)	.	((12ccnL	.	.
.	.	12dd-	.	.
.	.	12ccJ)	.	.
.	4AA-	8b-L	.	.
.	.	8ccJ	.	.
=14	=14	=14	=14	=14
(<8qD-/	.	.	.	.
4d- 4A-]	2D-)	8ee-L)	4f	.
.	.	16r	.	.
.	.	16dd-Jk	.	.
[2G-	.	8a-L	(2f-X	.
.	.	8b-	.	.
.	(4GG-	8a-	.	.
.	.	8b-J	.	.
!!LO:LB:g=original
=15	=15	=15	=15	=15
(<8qC-/	.	.	.	.
4c- 4G-]	2C-))	(<8dd-L	2.e-)	.
.	.	8cc-J)	.	.
[2F	.	(<8g-L	.	.
.	.	8a-	.	.
.	(4FF	8g-	.	.
.	.	8a-J	.	.
=16	=16	=16	=16	=16
4F]	2BB-)	8cc-L)	2dn	.
.	.	16r	.	.
.	.	16b-Jk	.	.
4A-	.	4f	.	.
4ryy	4G- [4E-	4e-^\	4ryy	fz
=17	=17	=17	=17	=17
2B-	4E-]	8b-L	4g-	.
.	.	8ee-J	.	.
.	[2E-^>	4dd-^	2gn	.
8c-L	.	(8cc-L	.	.
8d-J	.	8b-J	.	.
*	*	*v	*v	*
=18	=18	=18	=18
8c-L	2.E-_	8a-/L	.
8A-J	.	8cc-J	.
4dn	.	4f)	.
4B-	.	4b-^>/	.
=19	=19	=19	=19
*	*	*^	*
4e-	2.E-_	(8b-L	4g-	.
.	.	8ee-J	.	.
4B-	.	4dd-^	2gn	.
8e-L	.	8cc-L	.	.
8d-J	.	8b-J	.	.
*	*	*v	*v	*
!!LO:LB:g=original
=20	=20	=20	=20
*	*^	*	*
8c-L	8ryy	2.E-\]	8a-L	.
8A-J	4.A-	.	8fJ)	.
2ryy	.	.	4dn	.
.	4G-/	.	[4e-^>	.
*	*v	*v	*	*
=21	=21	=21	=21
*	*	*^	*
*	*	*	*^	*
4ryy	[2.E-	4ryy	8b-/L (>(<8g-/	2e-\]	.
.	.	.	8ee-J	.	.
4B-	.	4dd-^	2gn)	.	.
8c-L	.	4ryy	.	8cc-/L	.
8d-J	.	.	.	8b-/J	.
*	*	*	*v	*v	*
=22	=22	=22	=22	=22
*	*^	*	*	*
8c-L	8ryy	2.E-\_	8a-	4ryy	.
8A-J	4.A-	.	4.cc-)	.	.
2dn	.	.	.	2f	.
.	[>4B-	.	[4b-^	.	.
=23	=23	=23	=23	=23	=23
*	*	*^	*	*	*
2e-	2.B-]	4E-\]	2ryy	8b-L]	4g-	.
.	.	.	.	8ee-J	.	.
.	.	[2E-\	.	4dd-^	2gn	.
(>4e-	.	.	8e-L	8cc-L	.	.
.	.	.	8d-J	8b-J	.	.
*	*	*v	*v	*	*	*
=24	=24	=24	=24	=24	=24
8c-\L	4e-)/	2.E-]	8a-	4ryy	.
8A-J	.	.	4.f	.	.
2ryy	2ryy	.	.	4dn</	.
.	.	.	4e-^>;	4ryy	fz
*v	*v	*v	*	*	*
*	*v	*v	*
!!LO:TX:B:rj:b:t=FINE.
=:|!	=:|!	=:|!
*-	*-	*-
!!title: @{OTL}; @{OPS} @{ONM} publisher: @{PPR}
!!!RDF**kern: > = above
!!!RDF**kern: < = below
!!!RDF**kern: N = linked
!!!RDF**dynam: < = cres.
!!!ENC:Jacek Iwaszko
!!!END:2017-08-28
!!!EED: Leszek Kubiak
!!!EST: revision finished 2018-12-18
!!!rism-genre: Mazurka
!!!rism-key: E-flat minor
!!!rism-opus: op.  6, no. 4
!!!rism-title: Mazurka in E-flat minor op.  6, no. 4
!!!rism-permalink: https://opac.rism.info/search?id=300605321&View=rism
!!!rism-773a-OPR: 300605317
!!!rism-parent-permalink: https://opac.rism.info/search?id=300605317&View=rism
